svgs/sharp-solid/couch.svg

<svg xmlns="http://www.w3.org/2000/svg" viewBox="0 0 640 512"><!--! Font Awesome Pro 6.6.0 by @fontawesome - https://fontawesome.com License - https://fontawesome.com/license (Commercial License) Copyright 2024 Fonticons, Inc. --><path d="M64 32l0 160 32 0 32 0 0 32 0 96 384 0 0-96 0-32 32 0 32 0 0-160L64 32zm0 192L0 224 0 480l96 0 0-32 448 0 0 32 96 0 0-256-64 0-32 0 0 32 0 64 0 32-32 0-384 0-32 0 0-32 0-64 0-32-32 0z"/></svg>

<svg xmlns="http://www.w3.org/2000/svg" viewBox="0 0 640 512"><!--! Font Awesome Pro 6.5.2 by @fontawesome - https://fontawesome.com License - https://fontawesome.com/license (Commercial License) Copyright 2024 Fonticons, Inc. --><path d="M64 32V192H96h32v32 96H512V224 192h32 32V32H64zm0 192H0V480H96V448H544v32h96V224H576 544v32 64 32H512 128 96V320 256 224H64z"/></svg>
